svg/lamp.svg

<?xml version="1.0" encoding="UTF-8" standalone="no"?>
<!-- Created with Inkscape (http://www.inkscape.org/) -->

<svg
   width="32"
   height="32"
   viewBox="0 0 8.4666666 8.4666668"
   version="1.1"
   id="svg5"
   inkscape:version="1.2 (dc2aeda, 2022-05-15)"
   sodipodi:docname="lamp.svg"
   xmlns:inkscape="http://www.inkscape.org/namespaces/inkscape"
   xmlns:sodipodi="http://sodipodi.sourceforge.net/DTD/sodipodi-0.dtd"
   xmlns="http://www.w3.org/2000/svg"
   xmlns:svg="http://www.w3.org/2000/svg"
   xmlns:rdf="http://www.w3.org/1999/02/22-rdf-syntax-ns#"
   xmlns:cc="http://creativecommons.org/ns#">
  <sodipodi:namedview
     id="namedview7"
     pagecolor="#ffffff"
     bordercolor="#111111"
     borderopacity="1"
     inkscape:pageshadow="0"
     inkscape:pageopacity="0"
     inkscape:pagecheckerboard="1"
     inkscape:document-units="mm"
     showgrid="true"
     width="32mm"
     units="px"
     objecttolerance="10000"
     guidetolerance="10000"
     inkscape:snap-perpendicular="true"
     inkscape:snap-tangential="true"
     inkscape:zoom="37.9375"
     inkscape:cx="10.807249"
     inkscape:cy="16.039539"
     inkscape:window-width="2560"
     inkscape:window-height="1301"
     inkscape:window-x="0"
     inkscape:window-y="25"
     inkscape:window-maximized="0"
     inkscape:current-layer="layer1"
     inkscape:showpageshadow="0"
     inkscape:deskcolor="#d1d1d1">
    <inkscape:grid
       type="xygrid"
       id="grid9"
       units="px"
       empspacing="4" />
  </sodipodi:namedview>
  <defs
     id="defs2" />
  <g
     inkscape:label="Layer 1"
     inkscape:groupmode="layer"
     id="layer1">
    <rect
       style="fill:#000000;stroke:none;stroke-width:0"
       id="rect2742"
       width="1.0583333"
       height="0.52916664"
       x="0.52916664"
       y="3.96875" />
    <rect
       style="fill:#000000;stroke:none;stroke-width:0"
       id="rect2744"
       width="0.52916664"
       height="1.0583333"
       x="3.96875"
       y="0.52916664" />
    <rect
       style="fill:#000000;stroke:none;stroke-width:0"
       id="rect2746"
       width="1.0583333"
       height="0.52916664"
       x="6.8791666"
       y="3.96875" />
    <path
       style="fill:#000000;stroke:none;stroke-width:0.264583px;stroke-linecap:butt;stroke-linejoin:miter;stroke-opacity:1"
       d="M 6.0854166,2.1166666 6.3499999,2.38125 7.1437499,1.5875 6.8791666,1.3229166 l -0.79375,0.79375"
       id="path2748" />
    <path
       style="fill:#000000;stroke:none;stroke-width:0.264583px;stroke-linecap:butt;stroke-linejoin:miter;stroke-opacity:1"
       d="M 2.3812504,2.1166666 2.1166671,2.38125 1.3229171,1.5875 1.5875004,1.3229166 l 0.79375,0.79375"
       id="path2750" />
    <rect
       style="fill:#000000;stroke:none;stroke-width:0"
       id="rect2833"
       width="0.52916664"
       height="1.0583333"
       x="3.96875"
       y="-7.9374967"
       transform="scale(1,-1)" />
    <path
       style="fill:#000000;stroke:none;stroke-width:0.264583px;stroke-linecap:butt;stroke-linejoin:miter;stroke-opacity:1"
       d="M 6.0854166,6.3499994 6.3499999,6.085416 7.1437499,6.8791659 6.8791666,7.1437493 6.0854166,6.3499994"
       id="path2835" />
    <path
       style="fill:#000000;stroke:none;stroke-width:0.264583px;stroke-linecap:butt;stroke-linejoin:miter;stroke-opacity:1"
       d="M 2.3812504,6.3499994 2.1166671,6.085416 l -0.79375,0.7937499 0.2645833,0.2645834 0.79375,-0.7937499"
       id="path2837" />
    <path
       id="path2839"
       style="fill:#000000;stroke:none;stroke-width:0"
       d="M 4.2333333 2.1166667 A 2.1166666 2.1166666 0 0 0 2.1166667 4.2333333 A 2.1166666 2.1166666 0 0 0 4.2333333 6.35 A 2.1166666 2.1166666 0 0 0 6.35 4.2333333 A 2.1166666 2.1166666 0 0 0 4.2333333 2.1166667 z M 4.2333333 2.6458333 A 1.5875 1.5875 0 0 1 5.8208333 4.2333333 A 1.5875 1.5875 0 0 1 4.2333333 5.8208333 A 1.5875 1.5875 0 0 1 2.6458333 4.2333333 A 1.5875 1.5875 0 0 1 4.2333333 2.6458333 z " />
  </g>
  <metadata
     id="metadata33">
    <rdf:RDF>
      <cc:Work
         rdf:about="">
        <cc:license
           rdf:resource="http://creativecommons.org/licenses/by-sa/4.0/" />
      </cc:Work>
      <cc:License
         rdf:about="http://creativecommons.org/licenses/by-sa/4.0/">
        <cc:permits
           rdf:resource="http://creativecommons.org/ns#Reproduction" />
        <cc:permits
           rdf:resource="http://creativecommons.org/ns#Distribution" />
        <cc:requires
           rdf:resource="http://creativecommons.org/ns#Notice" />
        <cc:requires
           rdf:resource="http://creativecommons.org/ns#Attribution" />
        <cc:permits
           rdf:resource="http://creativecommons.org/ns#DerivativeWorks" />
        <cc:requires
           rdf:resource="http://creativecommons.org/ns#ShareAlike" />
      </cc:License>
    </rdf:RDF>
  </metadata>
</svg>

<svg width="32" height="32" viewBox="0 0 8.467 8.467" xmlns="http://www.w3.org/2000/svg"><path style="fill:#000;stroke:none;stroke-width:0" d="M.529 3.969h1.058v.529H.529zM3.969.529h.529v1.058h-.529zM6.879 3.969h1.058v.529H6.879z"/><path style="fill:#000;stroke:none;stroke-width:.264583px;stroke-linecap:butt;stroke-linejoin:miter;stroke-opacity:1" d="m6.085 2.117.265.264.794-.793-.265-.265-.794.794M2.381 2.117l-.264.264-.794-.793.265-.265.793.794"/><path style="fill:#000;stroke:none;stroke-width:0" transform="scale(1 -1)" d="M3.969-7.937h.529v1.058h-.529z"/><path style="fill:#000;stroke:none;stroke-width:.264583px;stroke-linecap:butt;stroke-linejoin:miter;stroke-opacity:1" d="m6.085 6.35.265-.265.794.794-.265.265-.794-.794M2.381 6.35l-.264-.265-.794.794.265.265.793-.794"/><path style="fill:#000;stroke:none;stroke-width:0" d="M4.233 2.117a2.117 2.117 0 0 0-2.116 2.116A2.117 2.117 0 0 0 4.233 6.35 2.117 2.117 0 0 0 6.35 4.233a2.117 2.117 0 0 0-2.117-2.116zm0 .529a1.587 1.587 0 0 1 1.588 1.587 1.587 1.587 0 0 1-1.588 1.588 1.587 1.587 0 0 1-1.587-1.588 1.587 1.587 0 0 1 1.587-1.587z"/></svg>
